public/static/img/assets/loan_icon.svg

<svg width="20" height="20" viewBox="0 0 20 20" fill="none" xmlns="http://www.w3.org/2000/svg">
<path d="M16.8859 11.7873C16.4926 11.474 15.9992 11.394 15.5592 11.5406C16.0259 10.6473 16.2792 9.63396 16.2792 8.58729C16.2792 5.03396 13.3859 2.14062 9.83255 2.14062C6.27922 2.14062 3.39255 5.03396 3.39255 8.58729C3.39255 9.54729 3.60589 10.494 4.01922 11.354C4.00589 11.354 3.99255 11.354 3.97922 11.3606L3.91922 11.3806C3.41922 11.5473 2.86589 11.8273 2.69922 11.9073L3.15255 12.8006C3.45255 12.6473 3.89255 12.4406 4.23922 12.334C4.25255 12.3273 4.26589 12.3273 4.27922 12.3206C4.96589 12.094 5.69922 11.9806 6.45922 11.9806C8.27255 11.9806 9.99922 12.6606 11.3126 13.8806C10.8526 13.974 10.3792 14.0206 9.89255 14.0206C8.99922 14.0206 8.13255 13.8006 7.16589 13.3273L6.72589 14.2273C8.74589 15.2073 10.6526 15.2006 12.4259 14.6273C13.4459 14.294 14.5459 13.6073 15.6992 12.5873C15.9592 12.354 16.2126 12.5273 16.2592 12.5673C16.3259 12.6206 16.5192 12.8073 16.3659 13.0873C15.6992 14.314 14.6992 15.3006 13.3926 16.0206C12.4192 16.554 11.2726 16.834 10.0792 16.834C7.74589 16.834 4.94589 15.874 3.56589 14.6006L2.88589 15.334C4.45922 16.7806 7.47922 17.834 10.0792 17.834C11.4392 17.834 12.7526 17.5073 13.8726 16.894C15.3526 16.0806 16.4859 14.9606 17.2459 13.5606C17.5859 12.9406 17.4392 12.2273 16.8859 11.7873ZM6.45922 10.9806C5.96589 10.9806 5.48589 11.0206 5.01255 11.1073C4.60484 10.3299 4.39208 9.46511 4.39255 8.58729C4.39255 5.58063 6.83255 3.14063 9.83255 3.14063C12.8392 3.14063 15.2792 5.58063 15.2792 8.58729C15.2792 10.6406 14.1192 12.5206 12.2926 13.4406C11.535 12.6601 10.6282 12.0401 9.62602 11.6175C8.62385 11.1949 7.54686 10.9783 6.45922 10.9806Z" fill="black"/>
<path d="M9.9269 10.7933C9.80024 10.7933 9.67357 10.7467 9.57357 10.6467L7.17357 8.24667C7.07994 8.15292 7.02734 8.02583 7.02734 7.89333C7.02734 7.76083 7.07994 7.63375 7.17357 7.54L9.57357 5.14C9.76024 4.95333 10.0936 4.95333 10.2802 5.14L12.6802 7.54C12.7739 7.63375 12.8265 7.76083 12.8265 7.89333C12.8265 8.02583 12.7739 8.15292 12.6802 8.24667L10.2802 10.6467C10.1802 10.74 10.0536 10.7933 9.9269 10.7933ZM8.23357 7.88667L9.9269 9.58L11.6202 7.88667L9.9269 6.19333L8.23357 7.88667Z" fill="black"/>
</svg>

<svg width="20" height="20" viewBox="0 0 20 20" fill="none" xmlns="http://www.w3.org/2000/svg"><path d="M16.886 11.787a1.403 1.403 0 0 0-1.327-.246 6.38 6.38 0 0 0 .72-2.954 6.456 6.456 0 0 0-6.446-6.446c-3.554 0-6.44 2.893-6.44 6.446 0 .96.213 1.907.626 2.767-.013 0-.026 0-.04.007l-.06.02c-.5.166-1.053.446-1.22.526l.454.894c.3-.154.74-.36 1.086-.467.014-.007.027-.007.04-.013a6.942 6.942 0 0 1 2.18-.34c1.814 0 3.54.68 4.854 1.9a7.12 7.12 0 0 1-1.42.14c-.894 0-1.76-.22-2.727-.694l-.44.9c2.02.98 3.927.974 5.7.4 1.02-.333 2.12-1.02 3.273-2.04a.417.417 0 0 1 .56-.02c.067.054.26.24.107.52-.667 1.227-1.667 2.214-2.973 2.934-.974.533-2.12.813-3.314.813-2.333 0-5.133-.96-6.513-2.233l-.68.733c1.573 1.447 4.593 2.5 7.193 2.5 1.36 0 2.674-.327 3.794-.94 1.48-.813 2.613-1.933 3.373-3.333a1.37 1.37 0 0 0-.36-1.774zm-10.427-.806c-.493 0-.973.04-1.446.126a5.447 5.447 0 0 1 4.82-7.967 5.449 5.449 0 0 1 5.446 5.447 5.439 5.439 0 0 1-2.986 4.854 8.105 8.105 0 0 0-5.834-2.46z" fill="#000"/><path d="M9.927 10.793a.494.494 0 0 1-.353-.146l-2.4-2.4a.5.5 0 0 1 0-.707l2.4-2.4a.516.516 0 0 1 .706 0l2.4 2.4a.5.5 0 0 1 0 .707l-2.4 2.4a.524.524 0 0 1-.353.146zM8.234 7.887 9.927 9.58l1.693-1.693-1.693-1.694-1.693 1.694z" fill="#000"/></svg>
